!!!!SEGMENT: pl-cz--iii-668--004_lscigalski-franciszek--missa-et-incarnatus.krn
!!!cenid: 18xx:1099
!!!COM: Ścigalski, Franciszek
!!!COM-rismid: pe30002948
!!!CDT: 1782/01/29-1846/09/27
!!!CNT: Polish
!!!OPR: Missa
!!!OTL: Et incarnatus
!!!OMV: 004
!!!PDT: 1827
!!!AGN: Sacred; Mass
!!!SMS-siglum: PL-CZ
!!!SMS-shelfmark: III-668
!!!SMS-shelfwork: 001-004 M
!!!SMS-variant:
!!!SMS-altvar:
!!!NIFC-rismid: 300001313
!!!URL-scan: http://repozytorium.nifc.pl/skany/pl-cz-nut--iii-668
!!!ONB-nifc: UWAGA: części Mszy: Kyrie, Gloria, Credo, Et incarnatus, Et resurrexit, Sanctus,
**kern	**fba	**dynam	**kern	**dynam	**kern	**dynam	**kern	**dynam	**kern	**text	**dynam	**kern	**text	**dynam	**kern	**text	**dynam	**kern	**text	**dynam	**kern	**kern	**kern	**kern	**kern	**dynam	**kern	**kern	**kern	**dynam
*	*	*	*group4	*	*group4	*	*group4	*	*group3	*	*	*group3	*	*	*group3	*	*	*group3	*	*	*	*group2	*group2	*group1	*group1	*	*group1	*group1	*group1	*
*part16	*	*	*part15	*part15	*part14	*part14	*part13	*part13	*part12	*part12	*part12	*part11	*part11	*part11	*part10	*part10	*part10	*part9	*part9	*part9	*part8	*part7	*part6	*part5	*part4	*	*part3	*part2	*part1	*part1
*staff16	*	*	*staff15	*	*staff14	*	*staff13	*	*staff12	*staff12	*	*staff11	*staff11	*	*staff10	*staff10	*	*staff9	*staff9	*	*staff8	*staff7	*staff6	*staff5	*staff4	*	*staff3	*staff2	*staff1	*
*I"Organo et Violoncello	*	*	*I"Alto Viola.	*	*I"Violino 2do	*	*I"Violino 1mo	*	*I"Basſo	*	*	*I"Tenore	*	*	*I"Alto	*	*	*I"Canto	*	*	*I"Tympani in B.F.	*I"Clarino 2do in B.	*I"Clarino 1mo in B.	*I"Fagotto 2do	*I"Fagotto 1mo	*	*I"Clarinetto 2do in B	*I"Clarinetto 1mo in B.	*I"Flauto	*
*I'organo et vcl	*	*	*I'a-viola	*	*I'vl 2	*	*I'vl 1	*	*I'B	*	*	*I'T	*	*	*I'A	*	*	*I'S	*	*	*I'timp	*I'clno 2 in B|b	*I'clno 1 in B|b	*I'fag 2	*I'fag 1	*	*I'cl 2 in B|b	*I'cl 1 in B|b	*I'fl	*
*Iorgan et cello	*	*	*Iviola	*	*Ivioln	*	*Ivioln	*	*Ibass	*	*	*Itenor	*	*	*Ialto	*	*	*Isoprn	*	*	*Itimpa	*Itromp	*Itromp	*Ifagot	*Ifagot	*	*Iclara	*Iclara	*Iflt	*
*ICklav et str	*	*	*ICstr	*	*ICstr	*	*ICstr	*	*ICvox	*	*	*ICvox	*	*	*ICvox	*	*	*ICvox	*	*	*ICidio	*ICbras	*ICbras	*ICww	*ICww	*	*ICww	*ICww	*ICww	*
*IGcont	*	*	*	*	*	*	*	*	*IGcoro	*	*	*IGcoro	*	*	*IGcoro	*	*	*IGcoro	*	*	*	*	*	*	*	*	*	*	*	*
*clefF4	*	*	*clefC3	*	*clefG2	*	*clefG2	*	*clefF4	*	*	*clefC4	*	*	*clefC3	*	*	*clefC1	*	*	*clefF4	*clefG2	*clefG2	*clefF4	*clefF4	*	*clefG2	*clefG2	*clefG2	*
*	*	*	*	*	*	*	*	*	*	*	*	*	*	*	*	*	*	*	*	*	*ITrd1c2	*ITrd1c2	*ITrd1c2	*	*	*	*ITrd1c2	*ITrd1c2	*	*
*k[b-e-a-]	*	*	*k[b-e-a-]	*	*k[b-e-a-]	*	*k[b-e-a-]	*	*k[b-e-a-]	*	*	*k[b-e-a-]	*	*	*k[b-e-a-]	*	*	*k[b-e-a-]	*	*	*k[b-e-a-]	*k[b-e-a-]	*k[b-e-a-]	*k[b-e-a-]	*k[b-e-a-]	*	*k[b-e-a-]	*k[b-e-a-]	*k[b-e-a-]	*
*E-:	*	*	*E-:	*	*E-:	*	*E-:	*	*E-:	*	*	*E-:	*	*	*E-:	*	*	*E-:	*	*	*E-:	*E-:	*E-:	*E-:	*E-:	*	*E-:	*E-:	*E-:	*
*M2/2	*	*	*M2/2	*	*M2/2	*	*M2/2	*	*M2/2	*	*	*M2/2	*	*	*M2/2	*	*	*M2/2	*	*	*M2/2	*M2/2	*M2/2	*M2/2	*M2/2	*	*M2/2	*M2/2	*M2/2	*
*met(c|)	*	*	*met(c|)	*	*met(c|)	*	*met(c|)	*	*met(c|)	*	*	*met(c|)	*	*	*met(c|)	*	*	*met(c|)	*	*	*met(c|)	*met(c|)	*met(c|)	*met(c|)	*met(c|)	*	*met(c|)	*met(c|)	*met(c|)	*
=1	=1	=1	=1	=1	=1	=1	=1	=1	=1	=1	=1	=1	=1	=1	=1	=1	=1	=1	=1	=1	=1	=1	=1	=1	=1	=1	=1	=1	=1	=1
*	*	*	*	*	*	*below	*	*	*	*	*	*	*	*	*	*	*	*	*	*	*	*	*	*	*	*	*	*	*	*
!	!	!	!	!	!	!	!	!	!	!	!	!	!	!	!	!	!	!LO:TX:t=P:problem:znaki [e- b- a-]	!	!	!	!	!	!	!	!	!	!LO:TX:b:t=dolce con espreſsione	!	!
!	!	!	!	!	!	!	!	!	!LO:TX:a:i:t=Adagio	!	!	!LO:TX:a:i:t=Adagio	!	!	!LO:TX:a:i:t=Adagio	!	!	!LO:TX:a:i:t=Adagio	!	!	!LO:TX:a:t=36.	!LO:TX:a:t=36	!LO:TX:a:t=36.	!LO:TX:a:t=36.	!LO:TX:a:i:t=Adagio	!	!	!LO:TX:a:t=Solo	!LO:TX:a:t=23.	!
!	!	!	!LO:TX:a:i:t=Adagio	!	!LO:TX:a:i:t=Adagio	!	!LO:TX:a:i:t=Adagio	!	!LO:TX:a:i:t=Et incarnatus	!	!	!LO:TX:a:i:t=Et incarnatus	!	!	!LO:TX:a:i:t=Et incarnatus	!	!	!LO:TX:a:i:t=Et incarnatus	!	!	!LO:TX:a:i:t=Adagio.	!LO:TX:a:i:t=Adagio	!LO:TX:a:i:t=Adagio.	!LO:TX:a:i:t=Adagio	!LO:TX:a:i:t=Et incarnatus	!	!LO:TX:a:t=37	!LO:TX:a:i:t=Adagio	!LO:TX:a:i:t=Adagio	!
!LO:TX:t=Solo	!	!LO:DY:rj	!LO:TX:a:i:t=Et incarnatus	!	!LO:TX:a:i:t=Et incarnatus	!	!LO:TX:a:i:t=Et incarnatus	!LO:DY:b:rj	!LO:TX:a:t=24.	!	!	!LO:TX:a:t=24.	!	!	!LO:TX:a:t=24	!	!	!LO:TX:a:t=8.	!	!	!LO:TX:a:i:t=Et incarnatus	!LO:TX:a:i:t=Et incarnatus	!LO:TX:a:i:t=Et incarnatus	!LO:TX:a:i:t=Et incarnatus	!LO:TX:a:t=23	!	!LO:TX:a:t=Et incarn&colon;	!LO:TX:a:i:t=Et incarnatus	!LO:TX:a:i:t=Et incarnatus	!
4E-\	.	pp	8r	pp	8r	p	8r	pp	00r	.	.	00r	.	.	00r	.	.	00r	.	.	00r	00r	00r	00r	00r	.	00r	2b-\	00r	.
.	.	.	8e-\L	.	(8g'/L	.	(8b-'\L	.	.	.	.	.	.	.	.	.	.	.	.	.	.	.	.	.	.	.	.	.	.	.
4r	.	.	8e-\	.	8g'/	.	8b-'\	.	.	.	.	.	.	.	.	.	.	.	.	.	.	.	.	.	.	.	.	.	.	.
.	.	.	8e-\J	.	8g'/J)	.	8b-'\J)	.	.	.	.	.	.	.	.	.	.	.	.	.	.	.	.	.	.	.	.	.	.	.
4E-\	.	.	8r	.	8r	.	8r	.	.	.	.	.	.	.	.	.	.	.	.	.	.	.	.	.	.	.	.	(8a\L	.	.
.	.	.	8e-\L	.	(8g'/L	.	(8b-'\L	.	.	.	.	.	.	.	.	.	.	.	.	.	.	.	.	.	.	.	.	8b-\	.	.
4r	.	.	8e-\	.	8g'/	.	8b-'\	.	.	.	.	.	.	.	.	.	.	.	.	.	.	.	.	.	.	.	.	8cc\	.	.
.	.	.	8e-\J	.	8g'/J)	.	8b-'\J)	.	.	.	.	.	.	.	.	.	.	.	.	.	.	.	.	.	.	.	.	8b-\J)	.	.
=2	=2	=2	=2	=2	=2	=2	=2	=2	=2	=2	=2	=2	=2	=2	=2	=2	=2	=2	=2	=2	=2	=2	=2	=2	=2	=2	=2	=2	=2	=2
4E-\	.	.	8r	.	8r	.	8r	.	.	.	.	.	.	.	.	.	.	.	.	.	.	.	.	.	.	.	.	[2b-\	.	.
*	*	*	*tremolo	*	*	*	*	*	*	*	*	*	*	*	*	*	*	*	*	*	*	*	*	*	*	*	*	*	*	*
*	*	*	*	*	*	*	*tremolo	*	*	*	*	*	*	*	*	*	*	*	*	*	*	*	*	*	*	*	*	*	*	*
!	!	!	!	!	!	!	!LO:TX:t=...	!	!	!	!	!	!	!	!	!	!	!	!	!	!	!	!	!	!	!	!	!	!	!
!	!	!	!LO:TX:t=...	!	!	!	!LO:TX:a:i:t=simile	!	!	!	!	!	!	!	!	!	!	!	!	!	!	!	!	!	!	!	!	!	!	!
.	.	.	8e-'\L	.	(8g'/L	.	8b-'\L	.	.	.	.	.	.	.	.	.	.	.	.	.	.	.	.	.	.	.	.	.	.	.
4r	.	.	8e-'\	.	8g'/	.	8b-'\	.	.	.	.	.	.	.	.	.	.	.	.	.	.	.	.	.	.	.	.	.	.	.
.	.	.	8e-'\J	.	8g'/J)	.	8b-'\J	.	.	.	.	.	.	.	.	.	.	.	.	.	.	.	.	.	.	.	.	.	.	.
4E-\	.	.	8r	.	8r	.	8r	.	.	.	.	.	.	.	.	.	.	.	.	.	.	.	.	.	.	.	.	8b-\L]	.	.
!	!	!	!LO:TX:t=...	!	!	!	!LO:TX:t=...	!	!	!	!	!	!	!	!	!	!	!	!	!	!	!	!	!	!	!	!	!	!	!
.	.	.	8e-'\L	.	(8g'/L	.	8b-'\L	.	.	.	.	.	.	.	.	.	.	.	.	.	.	.	.	.	.	.	.	(8gg\	.	.
4r	.	.	8e-'\	.	8g'/	.	8b-'\	.	.	.	.	.	.	.	.	.	.	.	.	.	.	.	.	.	.	.	.	8dd\	.	.
.	.	.	8e-'\J	.	8g'/J)	.	8b-'\J	.	.	.	.	.	.	.	.	.	.	.	.	.	.	.	.	.	.	.	.	8ee-\J)	.	.
=3	=3	=3	=3	=3	=3	=3	=3	=3	=3	=3	=3	=3	=3	=3	=3	=3	=3	=3	=3	=3	=3	=3	=3	=3	=3	=3	=3	=3	=3	=3
4D\	.	.	8r	.	8r	.	8r	.	.	.	.	.	.	.	.	.	.	.	.	.	.	.	.	.	.	.	.	2b-\	.	.
!	!	!	!LO:TX:t=...	!	!	!	!LO:TX:t=...	!	!	!	!	!	!	!	!	!	!	!	!	!	!	!	!	!	!	!	!	!	!	!
.	.	.	8f\ 8d'\L	.	(8a-'/L	.	8b-'\L	.	.	.	.	.	.	.	.	.	.	.	.	.	.	.	.	.	.	.	.	.	.	.
4r	.	.	8f\ 8d'\	.	8a-'/	.	8b-'\	.	.	.	.	.	.	.	.	.	.	.	.	.	.	.	.	.	.	.	.	.	.	.
.	.	.	8f\ 8d'\J	.	8a-'/J)	.	8b-'\J	.	.	.	.	.	.	.	.	.	.	.	.	.	.	.	.	.	.	.	.	.	.	.
4D\	.	.	8r	.	8r	.	8r	.	.	.	.	.	.	.	.	.	.	.	.	.	.	.	.	.	.	.	.	(8a\L	.	.
!	!	!	!LO:TX:t=...	!	!	!	!LO:TX:t=...	!	!	!	!	!	!	!	!	!	!	!	!	!	!	!	!	!	!	!	!	!	!	!
.	.	.	8f\ 8d'\L	.	(8a-'/L	.	8b-'\L	.	.	.	.	.	.	.	.	.	.	.	.	.	.	.	.	.	.	.	.	8b-\	.	.
4r	.	.	8f\ 8d'\	.	8a-'/	.	8b-'\	.	.	.	.	.	.	.	.	.	.	.	.	.	.	.	.	.	.	.	.	8cc\	.	.
.	.	.	8f\ 8d'\J	.	8a-'/J)	.	8b-'\J	.	.	.	.	.	.	.	.	.	.	.	.	.	.	.	.	.	.	.	.	8b-\J)	.	.
=4	=4	=4	=4	=4	=4	=4	=4	=4	=4	=4	=4	=4	=4	=4	=4	=4	=4	=4	=4	=4	=4	=4	=4	=4	=4	=4	=4	=4	=4	=4
4D\	.	.	8r	.	8r	.	8r	.	.	.	.	.	.	.	.	.	.	.	.	.	.	.	.	.	.	.	.	[2b-\	.	.
!	!	!	!LO:TX:t=...	!	!	!	!LO:TX:t=...	!	!	!	!	!	!	!	!	!	!	!	!	!	!	!	!	!	!	!	!	!	!	!
.	.	.	8f\ 8d'\L	.	(8a-'/L	.	8b-'\L	.	.	.	.	.	.	.	.	.	.	.	.	.	.	.	.	.	.	.	.	.	.	.
4r	.	.	8f\ 8d'\	.	8a-'/	.	8b-'\	.	.	.	.	.	.	.	.	.	.	.	.	.	.	.	.	.	.	.	.	.	.	.
.	.	.	8f\ 8d'\J	.	8a-'/J)	.	8b-'\J	.	.	.	.	.	.	.	.	.	.	.	.	.	.	.	.	.	.	.	.	.	.	.
4D\	.	.	8r	.	8r	.	8r	.	.	.	.	.	.	.	.	.	.	.	.	.	.	.	.	.	.	.	.	8b-\L]	.	.
!	!	!	!LO:TX:t=...	!	!	!	!LO:TX:t=...	!	!	!	!	!	!	!	!	!	!	!	!	!	!	!	!	!	!	!	!	!	!	!
.	.	.	8f\ 8d'\L	.	(8a-'/L	.	8b-'\L	.	.	.	.	.	.	.	.	.	.	.	.	.	.	.	.	.	.	.	.	(8aa-X\	.	.
4r	.	.	8f\ 8d'\	.	8a-'/	.	8b-'\	.	.	.	.	.	.	.	.	.	.	.	.	.	.	.	.	.	.	.	.	8eeX\	.	.
.	.	.	8f\ 8d'\J	.	8a-'/J)	.	8b-'\J	.	.	.	.	.	.	.	.	.	.	.	.	.	.	.	.	.	.	.	.	8ff\J)	.	.
!	!	!	!	!	!LO:LB:g=original	!	!	!	!	!	!	!	!	!	!	!	!	!	!	!	!	!	!	!	!	!	!	!	!	!
=5	=5	=5	=5	=5	=5	=5	=5	=5	=5	=5	=5	=5	=5	=5	=5	=5	=5	=5	=5	=5	=5	=5	=5	=5	=5	=5	=5	=5	=5	=5
4E-\	.	.	8r	.	8r	.	8r	.	00r	.	.	00r	.	.	00r	.	.	00r	.	.	00r	00r	00r	00r	00r	.	00r	2gg\	00r	.
!	!	!	!LO:TX:t=...	!	!	!	!LO:TX:t=...	!	!	!	!	!	!	!	!	!	!	!	!	!	!	!	!	!	!	!	!	!	!	!
.	.	.	8e-'\L	.	(8g'/L	.	8b-'\L	.	.	.	.	.	.	.	.	.	.	.	.	.	.	.	.	.	.	.	.	.	.	.
4r	.	.	8e-'\	.	8g'/	.	8b-'\	.	.	.	.	.	.	.	.	.	.	.	.	.	.	.	.	.	.	.	.	.	.	.
.	.	.	8e-'\J	.	8g'/J)	.	8b-'\J	.	.	.	.	.	.	.	.	.	.	.	.	.	.	.	.	.	.	.	.	.	.	.
4G\	.	.	8r	.	8r	.	8r	.	.	.	.	.	.	.	.	.	.	.	.	.	.	.	.	.	.	.	.	2ffT\	.	.
!	!	!	!LO:TX:b:t=...	!	!	!	!LO:TX:t=...	!	!	!	!	!	!	!	!	!	!	!	!	!	!	!	!	!	!	!	!	!	!	!
.	.	.	8G'/L	.	(8f/L 8d'/	.	8bn'\L	.	.	.	.	.	.	.	.	.	.	.	.	.	.	.	.	.	.	.	.	.	.	.
4r	.	.	8G'/	.	8f/ 8d'/	.	8bn'\	.	.	.	.	.	.	.	.	.	.	.	.	.	.	.	.	.	.	.	.	.	.	.
.	.	.	8G'/J	.	8f/J 8d'/)	.	8bn'\J	.	.	.	.	.	.	.	.	.	.	.	.	.	.	.	.	.	.	.	.	.	.	.
*	*	*	*Xtremolo	*	*	*	*Xtremolo	*	*	*	*	*	*	*	*	*	*	*	*	*	*	*	*	*	*	*	*	*	*	*
.	.	.	.	.	.	.	.	.	.	.	.	.	.	.	.	.	.	.	.	.	.	.	.	.	.	.	.	(32qqeeX/LLL	.	.
.	.	.	.	.	.	.	.	.	.	.	.	.	.	.	.	.	.	.	.	.	.	.	.	.	.	.	.	32qqff/J	.	.
.	.	.	.	.	.	.	.	.	.	.	.	.	.	.	.	.	.	.	.	.	.	.	.	.	.	.	.	16qqgg/)	.	.
.	.	.	.	.	.	.	.	.	.	.	.	.	.	.	.	.	.	.	.	.	.	.	.	.	.	.	.	16qqff'/JJ	.	.
!	!	!	!	!	!	!	!	!	!	!	!	!	!	!	!	!	!	!	!	!	!	!	!	!	!	!	!	!LO:LB:g=original	!	!
=6	=6	=6	=6	=6	=6	=6	=6	=6	=6	=6	=6	=6	=6	=6	=6	=6	=6	=6	=6	=6	=6	=6	=6	=6	=6	=6	=6	=6	=6	=6
4C/	.	.	8r	.	8r	.	8r	.	.	.	.	.	.	.	.	.	.	.	.	.	.	.	.	.	.	.	.	4.ee-\	.	.
.	.	.	8e-'\L	.	8g'/L	.	8ee-'\L	.	.	.	.	.	.	.	.	.	.	.	.	.	.	.	.	.	.	.	.	.	.	.
4r	.	.	(8e-\	.	(8g/	.	(8ee-\	.	.	.	.	.	.	.	.	.	.	.	.	.	.	.	.	.	.	.	.	.	.	.
.	.	.	8f\J)	.	8f/J)	.	8dd\J)	.	.	.	.	.	.	.	.	.	.	.	.	.	.	.	.	.	.	.	.	8dd\	.	.
!	!	!	!	!	!	!	!	!	!	!	!	!	!	!	!	!	!	!	!	!	!	!	!	!	!	!	!	!LO:TX:t=P:problem:klamra łukowa	!	!
4E-\	.	.	4g\	.	4e-/	.	4cc\	.	.	.	.	.	.	.	.	.	.	.	.	.	.	.	.	.	.	.	.	12cc\L	.	.
.	.	.	.	.	.	.	.	.	.	.	.	.	.	.	.	.	.	.	.	.	.	.	.	.	.	.	.	12cc\	.	.
.	.	.	.	.	.	.	.	.	.	.	.	.	.	.	.	.	.	.	.	.	.	.	.	.	.	.	.	12dd\J	.	.
!	!	!	!	!	!	!	!	!	!	!	!	!	!	!	!	!	!	!	!	!	!	!	!	!	!	!	!	!LO:TX:t=P:problem:klamra łukowa	!	!
4r	.	.	4r	.	4r	.	4r	.	.	.	.	.	.	.	.	.	.	.	.	.	.	.	.	.	.	.	.	12ee-\L	.	.
.	.	.	.	.	.	.	.	.	.	.	.	.	.	.	.	.	.	.	.	.	.	.	.	.	.	.	.	12ff\	.	.
.	.	.	.	.	.	.	.	.	.	.	.	.	.	.	.	.	.	.	.	.	.	.	.	.	.	.	.	12gg\J	.	.
!LO:LB:g=original	!	!	!LO:LB:g=original	!	!	!	!	!	!	!	!	!	!	!	!	!	!	!	!	!	!	!	!	!	!	!	!	!	!	!
=7	=7	=7	=7	=7	=7	=7	=7	=7	=7	=7	=7	=7	=7	=7	=7	=7	=7	=7	=7	=7	=7	=7	=7	=7	=7	=7	=7	=7	=7	=7
4F\	.	.	8r	.	8r	.	8r	.	.	.	.	.	.	.	.	.	.	.	.	.	.	.	.	.	.	.	.	[2b-\	.	.
*	*	*	*tremolo	*	*	*	*	*	*	*	*	*	*	*	*	*	*	*	*	*	*	*	*	*	*	*	*	*	*	*
!	!	!	!LO:TX:t=...	!	!	!	!	!	!	!	!	!	!	!	!	!	!	!	!	!	!	!	!	!	!	!	!	!	!	!
.	.	.	8f'\L	.	8d'/L	.	8b-\L	.	.	.	.	.	.	.	.	.	.	.	.	.	.	.	.	.	.	.	.	.	.	.
4r	.	.	8f'\	.	(8d/	.	8b-\	.	.	.	.	.	.	.	.	.	.	.	.	.	.	.	.	.	.	.	.	.	.	.
.	.	.	8f'\J	.	8d/J)	.	8b-\J	.	.	.	.	.	.	.	.	.	.	.	.	.	.	.	.	.	.	.	.	.	.	.
4FF/	.	.	8r	.	8r	.	8r	.	.	.	.	.	.	.	.	.	.	.	.	.	.	.	.	.	.	.	.	8b-\L]	.	.
!	!	!	!LO:TX:t=...	!	!	!	!	!	!	!	!	!	!	!	!	!	!	!	!	!	!	!	!	!	!	!	!	!	!	!
.	.	.	8f'\L	.	8d'/L	.	8b-'\L	.	.	.	.	.	.	.	.	.	.	.	.	.	.	.	.	.	.	.	.	(8f\	.	.
4r	.	.	8f'\	.	(8d/	.	(8b-\	.	.	.	.	.	.	.	.	.	.	.	.	.	.	.	.	.	.	.	.	8dd\	.	.
.	.	.	8f'\J	.	8e-/J 8c/)	.	8an\J)	.	.	.	.	.	.	.	.	.	.	.	.	.	.	.	.	.	.	.	.	8cc\J)	.	.
!	!	!	!	!	!	!	!LO:LB:g=original	!	!	!	!	!	!	!	!	!	!	!	!	!	!	!	!	!	!	!	!	!	!	!
=8	=8	=8	=8	=8	=8	=8	=8	=8	=8	=8	=8	=8	=8	=8	=8	=8	=8	=8	=8	=8	=8	=8	=8	=8	=8	=8	=8	=8	=8	=8
!	!	!	!	!	!LO:TX:a:t=d	!	!	!	!	!	!	!	!	!	!	!	!	!	!	!	!	!	!	!	!	!	!	!	!	!
4BB-/	.	.	4f\	.	4d/	.	4b-/	.	.	.	.	.	.	.	.	.	.	.	.	.	.	.	.	.	.	.	.	4b-\	.	.
4r	.	.	4r	.	4r	.	4r	.	.	.	.	.	.	.	.	.	.	.	.	.	.	.	.	.	.	.	.	4.bb-\	.	.
2r	.	.	2r	.	2r	.	2r	.	.	.	.	.	.	.	.	.	.	.	.	.	.	.	.	.	.	.	.	.	.	.
*	*	*	*	*	*	*	*	*	*	*	*	*	*	*	*	*	*	*	*	*	*	*	*	*	*	*	*	*Xtuplet	*	*
.	.	.	.	.	.	.	.	.	.	.	.	.	.	.	.	.	.	.	.	.	.	.	.	.	.	.	.	(24aa-\LL	.	.
.	.	.	.	.	.	.	.	.	.	.	.	.	.	.	.	.	.	.	.	.	.	.	.	.	.	.	.	24ff\	.	.
.	.	.	.	.	.	.	.	.	.	.	.	.	.	.	.	.	.	.	.	.	.	.	.	.	.	.	.	24dd\JJ	.	.
.	.	.	.	.	.	.	.	.	.	.	.	.	.	.	.	.	.	.	.	.	.	.	.	.	.	.	.	16b-\LL	.	.
.	.	.	.	.	.	.	.	.	.	.	.	.	.	.	.	.	.	.	.	.	.	.	.	.	.	.	.	16a-\	.	.
.	.	.	.	.	.	.	.	.	.	.	.	.	.	.	.	.	.	.	.	.	.	.	.	.	.	.	.	16f\	.	.
.	.	.	.	.	.	.	.	.	.	.	.	.	.	.	.	.	.	.	.	.	.	.	.	.	.	.	.	16d\JJ)	.	.
=9	=9	=9	=9	=9	=9	=9	=9	=9	=9	=9	=9	=9	=9	=9	=9	=9	=9	=9	=9	=9	=9	=9	=9	=9	=9	=9	=9	=9	=9	=9
*	*	*	*	*	*	*	*	*	*	*	*	*	*	*	*	*	*	*2\right	*	*	*	*	*	*	*	*	*	*	*	*
!	!	!	!	!	!	!	!	!	!	!	!	!	!	!	!	!	!	!LO:TX:a:t=Solo	!	!	!	!	!	!	!	!	!	!LO:TX:a:t=1.	!	!
4E-\	.	.	8r	.	8r	.	8r	.	00r	.	.	00r	.	.	00r	.	.	2b-\	Et	.	00r	00r	00r	00r	00r	.	00r	1r	00r	.
!	!	!	!LO:TX:t=...	!	!	!	!	!	!	!	!	!	!	!	!	!	!	!	!	!	!	!	!	!	!	!	!	!	!	!
.	.	.	8e-'\L	.	(8g'/L	.	8b-'\L	.	.	.	.	.	.	.	.	.	.	.	.	.	.	.	.	.	.	.	.	.	.	.
4r	.	.	8e-'\	.	8g'/	.	8b-'\	.	.	.	.	.	.	.	.	.	.	.	.	.	.	.	.	.	.	.	.	.	.	.
.	.	.	8e-'\J	.	8g'/J)	.	8b-'\J	.	.	.	.	.	.	.	.	.	.	.	.	.	.	.	.	.	.	.	.	.	.	.
4E-\	.	.	8r	.	8r	.	8r	.	.	.	.	.	.	.	.	.	.	4b-\	in-	.	.	.	.	.	.	.	.	.	.	.
*	*	*	*	*	*	*	*tremolo	*	*	*	*	*	*	*	*	*	*	*	*	*	*	*	*	*	*	*	*	*	*	*
!	!	!	!LO:TX:t=...	!	!	!	!LO:TX:t=...	!	!	!	!	!	!	!	!	!	!	!	!	!	!	!	!	!	!	!	!	!	!	!
.	.	.	8e-'\L	.	(8g'/L	.	8b-'\L	.	.	.	.	.	.	.	.	.	.	.	.	.	.	.	.	.	.	.	.	.	.	.
4r	.	.	8e-'\	.	8g'/	.	8b-'\	.	.	.	.	.	.	.	.	.	.	4b-\	-car-	.	.	.	.	.	.	.	.	.	.	.
.	.	.	8e-'\J	.	8g'/J)	.	8b-'\J	.	.	.	.	.	.	.	.	.	.	.	.	.	.	.	.	.	.	.	.	.	.	.
*	*	*	*	*	*	*	*Xtremolo	*	*	*	*	*	*	*	*	*	*	*	*	*	*	*	*	*	*	*	*	*	*	*
=10	=10	=10	=10	=10	=10	=10	=10	=10	=10	=10	=10	=10	=10	=10	=10	=10	=10	=10	=10	=10	=10	=10	=10	=10	=10	=10	=10	=10	=10	=10
4E-\	.	.	8r	.	8r	.	8r	.	.	.	.	.	.	.	.	.	.	4.cc^\	-na-	.	.	.	.	.	.	.	.	2r	.	.
!	!	!	!LO:TX:t=...	!	!	!	!	!	!	!	!	!	!	!	!	!	!	!	!	!	!	!	!	!	!	!	!	!	!	!
.	.	.	8e-'\L	.	(8g'^>/L	.	(8cc^\L	.	.	.	.	.	.	.	.	.	.	.	.	.	.	.	.	.	.	.	.	.	.	.
4r	.	.	8e-'\	.	8g'/	.	8b-\)	.	.	.	.	.	.	.	.	.	.	.	.	.	.	.	.	.	.	.	.	.	.	.
.	.	.	8e-'\J	.	8g'/J)	.	8b-'\J	.	.	.	.	.	.	.	.	.	.	8b-\	-tus	.	.	.	.	.	.	.	.	.	.	.
4E-\	.	.	8r	.	8r	.	8r	.	.	.	.	.	.	.	.	.	.	4b-\	est	.	.	.	.	.	.	.	.	(8b-\L	.	.
*	*	*	*	*	*	*	*tremolo	*	*	*	*	*	*	*	*	*	*	*	*	*	*	*	*	*	*	*	*	*	*	*
!	!	!	!LO:TX:t=...	!	!	!	!LO:TX:t=...	!	!	!	!	!	!	!	!	!	!	!	!	!	!	!	!	!	!	!	!	!	!	!
.	.	.	8e-'\L	.	(8g'^>/L	.	8b-'\L	.	.	.	.	.	.	.	.	.	.	.	.	.	.	.	.	.	.	.	.	8gg\	.	.
4r	.	.	8e-'\	.	8g'/	.	8b-'\	.	.	.	.	.	.	.	.	.	.	4r	.	.	.	.	.	.	.	.	.	8dd\	.	.
.	.	.	8e-'\J	.	8g'/J)	.	8b-'\J	.	.	.	.	.	.	.	.	.	.	.	.	.	.	.	.	.	.	.	.	8ee-\J)	.	.
=11	=11	=11	=11	=11	=11	=11	=11	=11	=11	=11	=11	=11	=11	=11	=11	=11	=11	=11	=11	=11	=11	=11	=11	=11	=11	=11	=11	=11	=11	=11
4D\	.	.	8r	.	8r	.	8r	.	.	.	.	.	.	.	.	.	.	2b-\	Et	.	.	.	.	.	.	.	.	4b-\	.	.
!	!	!	!LO:TX:t=...	!	!	!	!LO:TX:t=...	!	!	!	!	!	!	!	!	!	!	!	!	!	!	!	!	!	!	!	!	!	!	!
.	.	.	8f\ 8d'\L	.	(8a-'/L	.	8b-'\L	.	.	.	.	.	.	.	.	.	.	.	.	.	.	.	.	.	.	.	.	.	.	.
4r	.	.	8f\ 8d'\	.	8a-'/	.	8b-'\	.	.	.	.	.	.	.	.	.	.	.	.	.	.	.	.	.	.	.	.	4r	.	.
.	.	.	8f\ 8d'\J	.	8a-'/J)	.	8b-'\J	.	.	.	.	.	.	.	.	.	.	.	.	.	.	.	.	.	.	.	.	.	.	.
4D\	.	.	8r	.	8r	.	8r	.	.	.	.	.	.	.	.	.	.	4b-\	in-	.	.	.	.	.	.	.	.	2r	.	.
!	!	!	!LO:TX:t=...	!	!	!	!LO:TX:t=...	!	!	!	!	!	!	!	!	!	!	!	!	!	!	!	!	!	!	!	!	!	!	!
.	.	.	8f\ 8d'\L	.	(8a-'/L	.	8b-'\L	.	.	.	.	.	.	.	.	.	.	.	.	.	.	.	.	.	.	.	.	.	.	.
4r	.	.	8f\ 8d'\	.	8a-'/	.	8b-'\	.	.	.	.	.	.	.	.	.	.	4b-\	-car-	.	.	.	.	.	.	.	.	.	.	.
.	.	.	8f\ 8d'\J	.	8a-'/J)	.	8b-'\J	.	.	.	.	.	.	.	.	.	.	.	.	.	.	.	.	.	.	.	.	.	.	.
*	*	*	*	*	*	*	*Xtremolo	*	*	*	*	*	*	*	*	*	*	*	*	*	*	*	*	*	*	*	*	*	*	*
!	!	!	!	!	!LO:LB:g=original	!	!	!	!	!	!	!	!	!	!	!	!	!LO:LB:g=original	!	!	!	!	!	!	!	!	!	!	!	!
=12	=12	=12	=12	=12	=12	=12	=12	=12	=12	=12	=12	=12	=12	=12	=12	=12	=12	=12	=12	=12	=12	=12	=12	=12	=12	=12	=12	=12	=12	=12
4D\	.	.	8r	.	8r	.	8r	.	.	.	.	.	.	.	.	.	.	4.cc^\	-na-	.	.	.	.	.	.	.	.	2r	.	.
!	!	!	!LO:TX:t=...	!	!	!	!	!	!	!	!	!	!	!	!	!	!	!	!	!	!	!	!	!	!	!	!	!	!	!
.	.	.	8f\ 8d'\L	.	(8a-'^>/L	.	(8cc\L	.	.	.	.	.	.	.	.	.	.	.	.	.	.	.	.	.	.	.	.	.	.	.
4r	.	.	8f\ 8d'\	.	8a-'/	.	8b-\)	.	.	.	.	.	.	.	.	.	.	.	.	.	.	.	.	.	.	.	.	.	.	.
.	.	.	8f\ 8d'\J	.	8a-'/J)	.	8b-'\J	.	.	.	.	.	.	.	.	.	.	8b-\	-tus	.	.	.	.	.	.	.	.	.	.	.
4D\	.	.	8r	.	8r	.	8r	.	.	.	.	.	.	.	.	.	.	4b-\	est	.	.	.	.	.	.	.	.	(8b-\L	.	.
*	*	*	*	*	*	*	*tremolo	*	*	*	*	*	*	*	*	*	*	*	*	*	*	*	*	*	*	*	*	*	*	*
!	!	!	!LO:TX:t=...	!	!	!	!LO:TX:t=...	!	!	!	!	!	!	!	!	!	!	!	!	!	!	!	!	!	!	!	!	!	!	!
.	.	.	8f\ 8d'\L	.	(8a-'/L	.	8b-'\L	.	.	.	.	.	.	.	.	.	.	.	.	.	.	.	.	.	.	.	.	8aa-X\	.	.
4r	.	.	8f\ 8d'\	.	8a-'/	.	8b-'\	.	.	.	.	.	.	.	.	.	.	4r	.	.	.	.	.	.	.	.	.	8eeX\	.	.
.	.	.	8f\ 8d'\J	.	8a-'/J)	.	8b-'\J	.	.	.	.	.	.	.	.	.	.	.	.	.	.	.	.	.	.	.	.	8ff\J)	.	.
=13	=13	=13	=13	=13	=13	=13	=13	=13	=13	=13	=13	=13	=13	=13	=13	=13	=13	=13	=13	=13	=13	=13	=13	=13	=13	=13	=13	=13	=13	=13
!	!	!	!	!	!	!	!	!	!	!	!	!	!	!	!	!	!	!	!	!	!	!	!	!	!	!	!	!LO:TX:a:t=3.	!	!
4E-\	.	.	8r	.	8r	.	8r	.	00r	.	.	00r	.	.	00r	.	.	2gg\	Et	.	00r	00r	00r	00r	00r	.	00r	0r	00r	.
!	!	!	!LO:TX:t=...	!	!	!	!LO:TX:t=...	!	!	!	!	!	!	!	!	!	!	!	!	!	!	!	!	!	!	!	!	!	!	!
.	.	.	8e-'\L	.	(8g'/L	.	8b-'\L	.	.	.	.	.	.	.	.	.	.	.	.	.	.	.	.	.	.	.	.	.	.	.
4r	.	.	8e-'\	.	8g'/	.	8b-'\	.	.	.	.	.	.	.	.	.	.	.	.	.	.	.	.	.	.	.	.	.	.	.
.	.	.	8e-'\J	.	8g'/J)	.	8b-'\J	.	.	.	.	.	.	.	.	.	.	.	.	.	.	.	.	.	.	.	.	.	.	.
4G\	.	.	8r	.	8r	.	8r	.	.	.	.	.	.	.	.	.	.	4ff\	in-	.	.	.	.	.	.	.	.	.	.	.
!	!	!	!LO:TX:b:t=...	!	!	!	!LO:TX:t=...	!	!	!	!	!	!	!	!	!	!	!	!	!	!	!	!	!	!	!	!	!	!	!
.	.	.	8G'/L	.	(8f/L 8d'/	.	8bn'\L	.	.	.	.	.	.	.	.	.	.	.	.	.	.	.	.	.	.	.	.	.	.	.
4r	.	.	8G'/	.	8f/ 8d'/	.	8bn'\	.	.	.	.	.	.	.	.	.	.	4ff\	-car-	.	.	.	.	.	.	.	.	.	.	.
.	.	.	8G'/J	.	8f/J 8d'/)	.	8bn'\J	.	.	.	.	.	.	.	.	.	.	.	.	.	.	.	.	.	.	.	.	.	.	.
*	*	*	*Xtremolo	*	*	*	*Xtremolo	*	*	*	*	*	*	*	*	*	*	*	*	*	*	*	*	*	*	*	*	*	*	*
=14	=14	=14	=14	=14	=14	=14	=14	=14	=14	=14	=14	=14	=14	=14	=14	=14	=14	=14	=14	=14	=14	=14	=14	=14	=14	=14	=14	=14	=14	=14
4C/	.	.	8r	.	8r	.	8r	.	.	.	.	.	.	.	.	.	.	4.ee-\	-na-	.	.	.	.	.	.	.	.	.	.	.
.	.	.	8e-'\L	.	8g'/L	.	8ee-'\L	.	.	.	.	.	.	.	.	.	.	.	.	.	.	.	.	.	.	.	.	.	.	.
4r	.	.	(8e-\	.	(8g/	.	(8ee-\	.	.	.	.	.	.	.	.	.	.	.	.	.	.	.	.	.	.	.	.	.	.	.
.	.	.	8f\J)	.	8f/J)	.	8dd\J)	.	.	.	.	.	.	.	.	.	.	8dd\	-tus	.	.	.	.	.	.	.	.	.	.	.
4E-\	.	.	4g\	.	4e-/	.	4cc\	.	.	.	.	.	.	.	.	.	.	4cc\	est	.	.	.	.	.	.	.	.	.	.	.
4r	.	.	4r	.	4r	.	4r	.	.	.	.	.	.	.	.	.	.	4gg\	de	.	.	.	.	.	.	.	.	.	.	.
=15	=15	=15	=15	=15	=15	=15	=15	=15	=15	=15	=15	=15	=15	=15	=15	=15	=15	=15	=15	=15	=15	=15	=15	=15	=15	=15	=15	=15	=15	=15
4F\	.	.	8r	.	8r	.	8r	.	.	.	.	.	.	.	.	.	.	4ff\	spi-	.	.	.	.	.	.	.	.	1r	.	.
*	*	*	*tremolo	*	*	*	*	*	*	*	*	*	*	*	*	*	*	*	*	*	*	*	*	*	*	*	*	*	*	*
!	!	!	!LO:TX:t=...	!	!	!	!	!	!	!	!	!	!	!	!	!	!	!	!	!	!	!	!	!	!	!	!	!	!	!
.	.	.	8f'\L	.	8d'/L	.	8b-'\L	.	.	.	.	.	.	.	.	.	.	.	.	.	.	.	.	.	.	.	.	.	.	.
4r	.	.	8f'\	.	(8d/	.	(8b-\	.	.	.	.	.	.	.	.	.	.	8.b-\	-ri-	.	.	.	.	.	.	.	.	.	.	.
.	.	.	8f'\J	.	8e-/J)	.	8cc\J)	.	.	.	.	.	.	.	.	.	.	.	.	.	.	.	.	.	.	.	.	.	.	.
*	*	*	*Xtremolo	*	*	*	*	*	*	*	*	*	*	*	*	*	*	*	*	*	*	*	*	*	*	*	*	*	*	*
.	.	.	.	.	.	.	.	.	.	.	.	.	.	.	.	.	.	16cc\	-tu	.	.	.	.	.	.	.	.	.	.	.
8F\	.	.	8r	.	8r	.	8r	.	.	.	.	.	.	.	.	.	.	(>4dd\	san-	.	.	.	.	.	.	.	.	.	.	.
8r	.	.	8f\	.	8f/	.	8dd\	.	.	.	.	.	.	.	.	.	.	.	.	.	.	.	.	.	.	.	.	.	.	.
8FF/	.	.	8r	.	8r	.	8r	.	.	.	.	.	.	.	.	.	.	4cc\)	.	.	.	.	.	.	.	.	.	.	.	.
8r	.	.	8F/	.	8e-/	.	8cc\	.	.	.	.	.	.	.	.	.	.	.	.	.	.	.	.	.	.	.	.	.	.	.
!LO:LB:g=original	!	!	!LO:LB:g=original	!	!	!	!	!	!	!	!	!	!	!	!	!	!	!	!	!	!	!	!	!	!	!	!	!LO:LB:g=original	!	!
=16	=16	=16	=16	=16	=16	=16	=16	=16	=16	=16	=16	=16	=16	=16	=16	=16	=16	=16	=16	=16	=16	=16	=16	=16	=16	=16	=16	=16	=16	=16
4BB-/	.	.	8r	.	8r	.	8b-/L	.	.	.	.	.	.	.	.	.	.	4b-\	-cto	.	.	.	.	.	.	.	.	[2f\	.	.
*	*	*	*tremolo	*	*	*	*	*	*	*	*	*	*	*	*	*	*	*	*	*	*	*	*	*	*	*	*	*	*	*
!	!	!	!LO:TX:b:t=...	!	!	!	!	!	!	!	!	!	!	!	!	!	!	!	!	!	!	!	!	!	!	!	!	!	!	!
.	.	.	8B-'/L	.	(8d'/L	.	(8f'/	.	.	.	.	.	.	.	.	.	.	.	.	.	.	.	.	.	.	.	.	.	.	.
4r	.	.	8B-'/	.	8d'/	.	8f'/	.	.	.	.	.	.	.	.	.	.	4r	.	.	.	.	.	.	.	.	.	.	.	.
.	.	.	8B-'/J	.	8d'/J)	.	8f'/J)	.	.	.	.	.	.	.	.	.	.	.	.	.	.	.	.	.	.	.	.	.	.	.
4BB-/	.	.	8r	.	8r	.	8r	.	.	.	.	.	.	.	.	.	.	2r	.	.	.	.	.	.	.	.	.	8f\L]	.	.
*	*	*	*	*	*	*	*tremolo	*	*	*	*	*	*	*	*	*	*	*	*	*	*	*	*	*	*	*	*	*	*	*
!	!	!	!LO:TX:b:t=...	!	!	!	!LO:TX:b:t=...	!	!	!	!	!	!	!	!	!	!	!	!	!	!	!	!	!	!	!	!	!	!	!
.	.	.	8B-'/L	.	(8d'/L	.	8f'/L	.	.	.	.	.	.	.	.	.	.	.	.	.	.	.	.	.	.	.	.	(8dd\	.	.
4r	.	.	8B-'/	.	8d'/	.	8f'/	.	.	.	.	.	.	.	.	.	.	.	.	.	.	.	.	.	.	.	.	8a\	.	.
.	.	.	8B-'/J	.	8d'/J)	.	8f'/J	.	.	.	.	.	.	.	.	.	.	.	.	.	.	.	.	.	.	.	.	8b-\J)	.	.
!	!	!	!	!	!	!	!LO:LB:g=original	!	!	!	!	!	!	!	!	!	!	!LO:LB:g=original	!	!	!	!	!	!	!	!	!	!	!	!
=17	=17	=17	=17	=17	=17	=17	=17	=17	=17	=17	=17	=17	=17	=17	=17	=17	=17	=17	=17	=17	=17	=17	=17	=17	=17	=17	=17	=17	=17	=17
4AAn/	.	.	8r	.	8r	.	8r	.	00r	.	.	00r	.	.	00r	.	.	4.f/	ex	.	00r	00r	00r	00r	00r	.	00r	4f/	00r	.
!	!	!	!LO:TX:b:t=...	!	!	!	!LO:TX:b:t=...	!	!	!	!	!	!	!	!	!	!	!	!	!	!	!	!	!	!	!	!	!	!	!
.	.	.	8An'/L	.	(8e-/L 8c'/	.	8f'/L	.	.	.	.	.	.	.	.	.	.	.	.	.	.	.	.	.	.	.	.	.	.	.
4r	.	.	8An'/	.	8e-/ 8c'/	.	8f'/	.	.	.	.	.	.	.	.	.	.	.	.	.	.	.	.	.	.	.	.	4r	.	.
.	.	.	8An'/J	.	8e-/J 8c'/)	.	8f'/J	.	.	.	.	.	.	.	.	.	.	8f/	Ma-	.	.	.	.	.	.	.	.	.	.	.
4AA/	.	.	8r	.	8r	.	8r	.	.	.	.	.	.	.	.	.	.	4f/	-ri-	.	.	.	.	.	.	.	.	2r	.	.
!	!	!	!LO:TX:b:t=...	!	!	!	!LO:TX:b:t=...	!	!	!	!	!	!	!	!	!	!	!	!	!	!	!	!	!	!	!	!	!	!	!
.	.	.	8A'/L	.	(8e-/L 8c'/	.	8f'/L	.	.	.	.	.	.	.	.	.	.	.	.	.	.	.	.	.	.	.	.	.	.	.
4r	.	.	8A'/	.	8e-/ 8c'/	.	8f'/	.	.	.	.	.	.	.	.	.	.	4f/	-a	.	.	.	.	.	.	.	.	.	.	.
.	.	.	8A'/J	.	8e-/J 8c'/)	.	8f'/J	.	.	.	.	.	.	.	.	.	.	.	.	.	.	.	.	.	.	.	.	.	.	.
*	*	*	*	*	*	*	*Xtremolo	*	*	*	*	*	*	*	*	*	*	*	*	*	*	*	*	*	*	*	*	*	*	*
!	!	!	!	!	!LO:LB:g=original	!	!	!	!	!	!	!	!	!	!	!	!	!	!	!	!	!	!	!	!	!	!	!	!	!
=18	=18	=18	=18	=18	=18	=18	=18	=18	=18	=18	=18	=18	=18	=18	=18	=18	=18	=18	=18	=18	=18	=18	=18	=18	=18	=18	=18	=18	=18	=18
4BB-/	.	.	8r	.	8r	.	8r	.	.	.	.	.	.	.	.	.	.	4.g^>/	Vir-	.	.	.	.	.	.	.	.	[2f\	.	.
!	!	!	!LO:TX:b:t=...	!	!	!	!	!	!	!	!	!	!	!	!	!	!	!	!	!	!	!	!	!	!	!	!	!	!	!
.	.	.	8B-'/L	.	(8d'^/L	.	8g^>/L	.	.	.	.	.	.	.	.	.	.	.	.	.	.	.	.	.	.	.	.	.	.	.
4r	.	.	8B-'/	.	8d'/	.	8f/	.	.	.	.	.	.	.	.	.	.	.	.	.	.	.	.	.	.	.	.	.	.	.
.	.	.	8B-'/J	.	8d'/J)	.	8f/J	.	.	.	.	.	.	.	.	.	.	8f/	-gi-	.	.	.	.	.	.	.	.	.	.	.
!	!	!	!	!	!LO:TX:t=P:problem:kreska taktowa przed pauzą	!	!	!	!	!	!	!	!	!	!	!	!	!	!	!	!	!	!	!	!	!	!	!	!	!
4BB-/	.	.	8r	.	8r	.	8r	.	.	.	.	.	.	.	.	.	.	4f/	-ne	.	.	.	.	.	.	.	.	8f\L]	.	.
*	*	*	*	*	*	*	*tremolo	*	*	*	*	*	*	*	*	*	*	*	*	*	*	*	*	*	*	*	*	*	*	*
!	!	!	!LO:TX:b:t=...	!	!	!	!LO:TX:b:t=...	!	!	!	!	!	!	!	!	!	!	!	!	!	!	!	!	!	!	!	!	!	!	!
.	.	.	8B-'/L	.	(8d'/L	.	8f'/L	.	.	.	.	.	.	.	.	.	.	.	.	.	.	.	.	.	.	.	.	(8dd\	.	.
4r	.	.	8B-'/	.	8d'/	.	8f'/	.	.	.	.	.	.	.	.	.	.	4r	.	.	.	.	.	.	.	.	.	8a\	.	.
.	.	.	8B-'/J	.	8d'/J)	.	8f'/J	.	.	.	.	.	.	.	.	.	.	.	.	.	.	.	.	.	.	.	.	8b-\J)	.	.
=19	=19	=19	=19	=19	=19	=19	=19	=19	=19	=19	=19	=19	=19	=19	=19	=19	=19	=19	=19	=19	=19	=19	=19	=19	=19	=19	=19	=19	=19	=19
4AAn/	.	.	8r	.	8r	.	8r	.	.	.	.	.	.	.	.	.	.	4.f/	ex	.	.	.	.	.	.	.	.	4f/	.	.
!	!	!	!LO:TX:b:t=...	!	!	!	!LO:TX:b:t=...	!	!	!	!	!	!	!	!	!	!	!	!	!	!	!	!	!	!	!	!	!	!	!
.	.	.	8An'/L	.	(8e-/L 8c'/	.	8f'/L	.	.	.	.	.	.	.	.	.	.	.	.	.	.	.	.	.	.	.	.	.	.	.
4r	.	.	8An'/	.	8e-/ 8c'/	.	8f'/	.	.	.	.	.	.	.	.	.	.	.	.	.	.	.	.	.	.	.	.	4r	.	.
.	.	.	8An'/J	.	8e-/J 8c'/)	.	8f'/J	.	.	.	.	.	.	.	.	.	.	8f/	Ma-	.	.	.	.	.	.	.	.	.	.	.
4AA/	.	.	8r	.	8r	.	8r	.	.	.	.	.	.	.	.	.	.	4f/	-ri-	.	.	.	.	.	.	.	.	2r	.	.
!	!	!	!LO:TX:b:t=...	!	!	!	!LO:TX:b:t=...	!	!	!	!	!	!	!	!	!	!	!	!	!	!	!	!	!	!	!	!	!	!	!
.	.	.	8A'/L	.	(8e-/L 8c'/	.	8f'/L	.	.	.	.	.	.	.	.	.	.	.	.	.	.	.	.	.	.	.	.	.	.	.
4r	.	.	8A'/	.	8e-/ 8c'/	.	8f'/	.	.	.	.	.	.	.	.	.	.	4f/	-a	.	.	.	.	.	.	.	.	.	.	.
.	.	.	8A'/J	.	8e-/J 8c'/)	.	8f'/J	.	.	.	.	.	.	.	.	.	.	.	.	.	.	.	.	.	.	.	.	.	.	.
*	*	*	*	*	*	*	*Xtremolo	*	*	*	*	*	*	*	*	*	*	*	*	*	*	*	*	*	*	*	*	*	*	*
=20	=20	=20	=20	=20	=20	=20	=20	=20	=20	=20	=20	=20	=20	=20	=20	=20	=20	=20	=20	=20	=20	=20	=20	=20	=20	=20	=20	=20	=20	=20
4BB-/	.	.	8r	.	8r	.	8r	.	.	.	.	.	.	.	.	.	.	4.g^>/	Vir-	.	.	.	.	.	.	.	.	[2f\	.	.
!	!	!	!LO:TX:b:t=...	!	!	!	!	!	!	!	!	!	!	!	!	!	!	!	!	!	!	!	!	!	!	!	!	!	!	!
.	.	.	8B-'/L	.	(8d'^>/L	.	8g^>/L	.	.	.	.	.	.	.	.	.	.	.	.	.	.	.	.	.	.	.	.	.	.	.
4r	.	.	8B-'/	.	8d'/	.	8f/	.	.	.	.	.	.	.	.	.	.	.	.	.	.	.	.	.	.	.	.	.	.	.
.	.	.	8B-'/J	.	8d'/J)	.	8f/J	.	.	.	.	.	.	.	.	.	.	8f/	-gi-	.	.	.	.	.	.	.	.	.	.	.
4BB-/	.	.	8r	.	8r	.	8r	.	.	.	.	.	.	.	.	.	.	4f/	-ne	.	.	.	.	.	.	.	.	8f\L]	.	.
*	*	*	*	*	*	*	*tremolo	*	*	*	*	*	*	*	*	*	*	*	*	*	*	*	*	*	*	*	*	*	*	*
!	!	!	!LO:TX:b:t=...	!	!	!	!LO:TX:b:t=...	!	!	!	!	!	!	!	!	!	!	!	!	!	!	!	!	!	!	!	!	!	!	!
.	.	.	8B-'/L	.	(8d'/L	.	8f'/L	.	.	.	.	.	.	.	.	.	.	.	.	.	.	.	.	.	.	.	.	(8dd\	.	.
4r	.	.	8B-'/	.	8d'/	.	8f'/	.	.	.	.	.	.	.	.	.	.	4f/	et	.	.	.	.	.	.	.	.	8a\	.	.
.	.	.	8B-'/J	.	8d'/J)	.	8f'/J	.	.	.	.	.	.	.	.	.	.	.	.	.	.	.	.	.	.	.	.	8b-\J)	.	.
=21	=21	=21	=21	=21	=21	=21	=21	=21	=21	=21	=21	=21	=21	=21	=21	=21	=21	=21	=21	=21	=21	=21	=21	=21	=21	=21	=21	=21	=21	=21
4BB-/	.	.	8r	.	8r	.	8r	.	00r	.	.	00r	.	.	00r	.	.	2b-\	ho-	.	00r	00r	00r	00r	0r	.	00r	4b-\	0r	.
!	!	!	!LO:TX:b:t=...	!	!	!	!LO:TX:t=...	!	!	!	!	!	!	!	!	!	!	!	!	!	!	!	!	!	!	!	!	!	!	!
.	.	.	8B-'/L	.	(8d'/L	.	8b-'\L	.	.	.	.	.	.	.	.	.	.	.	.	.	.	.	.	.	.	.	.	.	.	.
4r	.	.	8B-'/	.	8d'/	.	8b-'\	.	.	.	.	.	.	.	.	.	.	.	.	.	.	.	.	.	.	.	.	4r	.	.
.	.	.	8B-'/J	.	8d'/J)	.	8b-'\J	.	.	.	.	.	.	.	.	.	.	.	.	.	.	.	.	.	.	.	.	.	.	.
4GG/	.	.	8r	.	8r	.	8r	.	.	.	.	.	.	.	.	.	.	2bn^\	-mo	.	.	.	.	.	.	.	.	2ff^\	.	.
!	!	!	!LO:TX:b:t=...	!	!	!	!LO:TX:t=...	!LO:DY:b:t=sf.	!	!	!	!	!	!	!	!	!	!	!	!	!	!	!	!	!	!	!	!	!	!
.	.	.	8G'/L	.	(8f/L 8d'/	.	8bn'\L	sf	.	.	.	.	.	.	.	.	.	.	.	.	.	.	.	.	.	.	.	.	.	.
4r	.	.	8G'/	.	8f/ 8d'/	.	8bn'\	.	.	.	.	.	.	.	.	.	.	.	.	.	.	.	.	.	.	.	.	.	.	.
.	.	.	8G'/J	.	8f/J 8d'/)	.	8bn'\J	.	.	.	.	.	.	.	.	.	.	.	.	.	.	.	.	.	.	.	.	.	.	.
*	*	*	*Xtremolo	*	*	*	*Xtremolo	*	*	*	*	*	*	*	*	*	*	*	*	*	*	*	*	*	*	*	*	*	*	*
!	!	!	!	!	!	!	!	!	!	!	!	!	!	!	!	!	!	!LO:LB:g=original	!	!	!	!	!	!	!	!	!	!	!	!
=22	=22	=22	=22	=22	=22	=22	=22	=22	=22	=22	=22	=22	=22	=22	=22	=22	=22	=22	=22	=22	=22	=22	=22	=22	=22	=22	=22	=22	=22	=22
!	!	!	!	!	!	!	!	!	!	!	!	!	!	!	!	!	!	!	!	!	!	!	!	!	!	!	!	!LO:ACC:color=grey	!	!
4C/	.	.	4c/	.	4e-/	.	4cc\	.	.	.	.	.	.	.	.	.	.	(2cc\	ho-	.	.	.	.	.	.	.	.	[2ee\	.	.
4r	.	.	4r	.	4r	.	4r	.	.	.	.	.	.	.	.	.	.	.	.	.	.	.	.	.	.	.	.	.	.	.
2r	.	.	2r	.	2r	.	2r	.	.	.	.	.	.	.	.	.	.	8cc\L	.	.	.	.	.	.	.	.	.	(8ee#\L]	.	.
.	.	.	.	.	.	.	.	.	.	.	.	.	.	.	.	.	.	8dd\J)	.	.	.	.	.	.	.	.	.	8ff\)	.	.
.	.	.	.	.	.	.	.	.	.	.	.	.	.	.	.	.	.	(8ee-\L	-mo	.	.	.	.	.	.	.	.	(8gg\	.	.
.	.	.	.	.	.	.	.	.	.	.	.	.	.	.	.	.	.	8cc\J)	.	.	.	.	.	.	.	.	.	8ee\J)	.	.
=23	=23	=23	=23	=23	=23	=23	=23	=23	=23	=23	=23	=23	=23	=23	=23	=23	=23	=23	=23	=23	=23	=23	=23	=23	=23	=23	=23	=23	=23	=23
4F\	.	.	8r	.	8r	.	8r	.	.	.	.	.	.	.	.	.	.	(2b-\	fa-	.	.	.	.	.	1r	.	.	2dd\	1r	.
*	*	*	*tremolo	*	*	*	*tremolo	*	*	*	*	*	*	*	*	*	*	*	*	*	*	*	*	*	*	*	*	*	*	*
!	!	!	!LO:TX:b:t=...	!	!	!	!	!	!	!	!	!	!	!	!	!	!	!	!	!	!	!	!	!	!	!	!	!	!	!
.	.	.	8F'/L	.	(8d'/L	.	8b-\L	.	.	.	.	.	.	.	.	.	.	.	.	.	.	.	.	.	.	.	.	.	.	.
4r	.	.	8F'/	.	8d'/	.	8b-\	.	.	.	.	.	.	.	.	.	.	.	.	.	.	.	.	.	.	.	.	.	.	.
.	.	.	8F'/J	.	8d'/J)	.	8b-\J	.	.	.	.	.	.	.	.	.	.	.	.	.	.	.	.	.	.	.	.	.	.	.
.	.	.	.	.	.	.	.	.	.	.	.	.	.	.	.	.	.	32qqcc/LLL	.	.	.	.	.	.	.	.	.	(32qqee-/LLL	.	.
.	.	.	.	.	.	.	.	.	.	.	.	.	.	.	.	.	.	32qqb-/	.	.	.	.	.	.	.	.	.	32qqdd/	.	.
.	.	.	.	.	.	.	.	.	.	.	.	.	.	.	.	.	.	32qqan/	.	.	.	.	.	.	.	.	.	32qqcc/	.	.
.	.	.	.	.	.	.	.	.	.	.	.	.	.	.	.	.	.	32qqb-/JJJ	.	.	.	.	.	.	.	.	.	32qqdd/JJJ)	.	.
4FF/	.	.	8r	.	8r	.	8r	.	.	.	.	.	.	.	.	.	.	4.dd\)	.	.	.	.	.	.	.	.	.	(4.ff\	.	.
!	!	!	!LO:TX:b:t=...	!	!	!	!	!	!	!	!	!	!	!	!	!	!	!	!	!	!	!	!	!	!	!	!	!	!	!
.	.	.	8F'/L	.	(8e-'/L	.	8an/L	.	.	.	.	.	.	.	.	.	.	.	.	.	.	.	.	.	.	.	.	.	.	.
4r	.	.	8F'/	.	8e-'/	.	8an/	.	.	.	.	.	.	.	.	.	.	.	.	.	.	.	.	.	.	.	.	.	.	.
!	!	!	!	!	!	!	!	!	!	!	!	!	!	!	!	!	!	!	!	!	!	!	!	!	!	!	!	!LO:ACC:color=grey	!	!
.	.	.	8F'/J	.	8e-'/J)	.	8an/J	.	.	.	.	.	.	.	.	.	.	8cc\	-ctus	.	.	.	.	.	.	.	.	8eeX\)	.	.
!	!	!	!	!	!LO:LB:g=original	!	!	!	!	!	!	!	!	!	!	!	!	!	!	!	!	!	!	!	!	!	!	!LO:LB:g=original	!	!
=24	=24	=24	=24	=24	=24	=24	=24	=24	=24	=24	=24	=24	=24	=24	=24	=24	=24	=24	=24	=24	=24	=24	=24	=24	=24	=24	=24	=24	=24	=24
*	*	*	*	*	*	*	*Xtremolo	*	*	*	*	*	*	*	*	*	*	*	*	*	*	*	*	*	*	*	*	*	*2\right	*
!	!	!	!	!	!	!	!	!LO:DY:b:rj	!	!	!	!	!	!	!	!	!	!	!	!	!	!	!	!	!LO:TX:a:t=Solo	!LO:DY:rj	!	!	!LO:TX:a:t=Solo	!LO:DY:rj
4BB-/	.	.	8r	pp	8r	.	8b-/L	pp	.	.	.	.	.	.	.	.	.	4b-\	est	.	.	.	.	.	[2F\	pp	.	[2f\	[2ff\	p
!	!	!	!LO:TX:b:t=...	!	!	!	!	!	!	!	!	!	!	!	!	!	!	!	!	!	!	!	!	!	!	!	!	!	!	!
.	.	.	8B-'/L	.	(8d'/L	.	8f/	.	.	.	.	.	.	.	.	.	.	.	.	.	.	.	.	.	.	.	.	.	.	.
4r	.	.	8B-'/	.	8d'/	.	8f/	.	.	.	.	.	.	.	.	.	.	4r	.	.	.	.	.	.	.	.	.	.	.	.
.	.	.	8B-'/J	.	8d'/J)	.	8f/J	.	.	.	.	.	.	.	.	.	.	.	.	.	.	.	.	.	.	.	.	.	.	.
4BB-/	.	.	8r	.	8r	.	8r	.	.	.	.	.	.	.	.	.	.	2r	.	.	.	.	.	.	8F\L]	.	.	8f\L]	8ff\L]	.
*	*	*	*	*	*	*	*tremolo	*	*	*	*	*	*	*	*	*	*	*	*	*	*	*	*	*	*	*	*	*	*	*
!	!	!	!LO:TX:b:t=...	!	!	!	!LO:TX:b:t=...	!	!	!	!	!	!	!	!	!	!	!	!	!	!	!	!	!	!	!	!	!	!	!
.	.	.	8B-'/L	.	(8d'/L	.	8f'/L	.	.	.	.	.	.	.	.	.	.	.	.	.	.	.	.	.	(8d\	.	.	(8dd\	(8ddd\	.
4r	.	.	8B-'/	.	8d'/	.	8f'/	.	.	.	.	.	.	.	.	.	.	.	.	.	.	.	.	.	8An\	.	.	8a\	8aan\	.
.	.	.	8B-'/J	.	8d'/J)	.	8f'/J	.	.	.	.	.	.	.	.	.	.	.	.	.	.	.	.	.	8B-\J)	.	.	8b-\J)	8bb-\J)	.
!LO:LB:g=original	!	!	!LO:LB:g=original	!	!	!	!	!	!	!	!	!	!	!	!	!	!	!	!	!	!	!	!	!	!	!	!	!	!	!
=25	=25	=25	=25	=25	=25	=25	=25	=25	=25	=25	=25	=25	=25	=25	=25	=25	=25	=25	=25	=25	=25	=25	=25	=25	=25	=25	=25	=25	=25	=25
!	!	!	!	!	!	!	!	!	!	!	!LO:DY:rj:b	!	!	!LO:DY:rj:b	!	!	!LO:DY:rj:b	!LO:TX:a:t=Tutti	!	!LO:DY:rj:b	!	!	!	!	!	!	!	!	!	!
4AAn/	.	.	8r	.	8r	.	8r	.	4AAn/	Cru-	pp	4c\	Cru-	pp	4e-\	Cru-	pp	4f/	cru-	pp	00r	00r	00r	00r	4F\	.	00r	4f/	4ff\	.
!	!	!	!LO:TX:b:t=...	!	!	!	!LO:TX:b:t=...	!	!	!	!	!	!	!	!	!	!	!	!	!	!	!	!	!	!	!	!	!	!	!
.	.	.	8An'/L	.	(8e-/L 8c'/	.	8f'/L	.	.	.	.	.	.	.	.	.	.	.	.	.	.	.	.	.	.	.	.	.	.	.
4r	.	.	8An'/	.	8e-/ 8c'/	.	8f'/	.	4AA/	-ci-	.	4c\	-ci-	.	4e-\	-ci-	.	4f/	-ci-	.	.	.	.	.	4r	.	.	4r	4r	.
.	.	.	8An'/J	.	8e-/J 8c'/)	.	8f'/J	.	.	.	.	.	.	.	.	.	.	.	.	.	.	.	.	.	.	.	.	.	.	.
*	*	*	*	*	*	*	*	*	*	*	*	*2\right	*	*	*2\right	*	*	*	*	*	*	*	*	*	*	*	*	*	*	*
4AA/	.	.	8r	.	8r	.	8r	.	2AA/	-fi-	.	2c\	-fi-	.	2e-\	-fi-	.	2f/	-fi-	.	.	.	.	.	2r	.	.	2r	2r	.
!	!	!	!LO:TX:b:t=...	!	!	!	!LO:TX:b:t=...	!	!	!	!	!	!	!	!	!	!	!	!	!	!	!	!	!	!	!	!	!	!	!
.	.	.	8A'/L	.	(8e-/L 8c'/	.	8f'/L	.	.	.	.	.	.	.	.	.	.	.	.	.	.	.	.	.	.	.	.	.	.	.
4r	.	.	8A'/	.	8e-/ 8c'/	.	8f'/	.	.	.	.	.	.	.	.	.	.	.	.	.	.	.	.	.	.	.	.	.	.	.
.	.	.	8A'/J	.	8e-/J 8c'/)	.	8f'/J	.	.	.	.	.	.	.	.	.	.	.	.	.	.	.	.	.	.	.	.	.	.	.
=26	=26	=26	=26	=26	=26	=26	=26	=26	=26	=26	=26	=26	=26	=26	=26	=26	=26	=26	=26	=26	=26	=26	=26	=26	=26	=26	=26	=26	=26	=26
!	!	!	!	!	!	!	!	!	!	!	!	!	!	!	!	!	!	!	!	!	!	!	!	!	!	!	!	!LO:TX:t=P:problem:brak t. 26-27	!	!
4BB-/	.	.	8r	.	8r	.	8r	.	4BB-/	-xus	.	4B-\	-xus	.	4d\	-xus	.	4f/	-xus	.	.	.	.	.	[2F\	.	.	1ryy	[2ff\	.
!	!	!	!LO:TX:b:t=...	!	!	!	!LO:TX:b:t=...	!	!	!	!	!	!	!	!	!	!	!	!	!	!	!	!	!	!	!	!	!	!	!
.	.	.	8B-'/L	.	(8d'/L	.	8f'/L	.	.	.	.	.	.	.	.	.	.	.	.	.	.	.	.	.	.	.	.	.	.	.
4r	.	.	8B-'/	.	8d'/	.	8f'/	.	4r	.	.	4r	.	.	4r	.	.	4r	.	.	.	.	.	.	.	.	.	.	.	.
.	.	.	8B-'/J	.	8d'/J)	.	8f'/J	.	.	.	.	.	.	.	.	.	.	.	.	.	.	.	.	.	.	.	.	.	.	.
4BB-/	.	.	8r	.	8r	.	8r	.	2r	.	.	2r	.	.	2r	.	.	2r	.	.	.	.	.	.	8F\L]	.	.	.	8ff\L]	.
!	!	!	!LO:TX:b:t=...	!	!	!	!LO:TX:b:t=...	!	!	!	!	!	!	!	!	!	!	!	!	!	!	!	!	!	!	!	!	!	!	!
.	.	.	8B-'/L	.	(8d'/L	.	8f'/L	.	.	.	.	.	.	.	.	.	.	.	.	.	.	.	.	.	(8d\	.	.	.	(8ddd\	.
4r	.	.	8B-'/	.	8d'/	.	8f'/	.	.	.	.	.	.	.	.	.	.	.	.	.	.	.	.	.	8An\	.	.	.	8aan\	.
.	.	.	8B-'/J	.	8d'/J)	.	8f'/J	.	.	.	.	.	.	.	.	.	.	.	.	.	.	.	.	.	8B-\J)	.	.	.	8bb-\J)	.
!	!	!	!	!	!	!	!LO:LB:g=original	!	!	!	!	!	!	!	!	!	!	!	!	!	!	!	!	!	!	!	!	!	!	!
=27	=27	=27	=27	=27	=27	=27	=27	=27	=27	=27	=27	=27	=27	=27	=27	=27	=27	=27	=27	=27	=27	=27	=27	=27	=27	=27	=27	=27	=27	=27
4AAn/	.	.	8r	.	8r	.	8r	.	4.AAn/	e-	.	4.c\	e-	.	4.e-\	e-	.	4.f/	re-	.	.	.	.	.	4F\	.	.	1ryy	4ff\	.
!	!	!	!LO:TX:b:t=...	!	!	!	!LO:TX:b:t=...	!	!	!	!	!	!	!	!	!	!	!	!	!	!	!	!	!	!	!	!	!	!	!
.	.	.	8An'/L	.	(8e-/L 8c'/	.	8f'/L	.	.	.	.	.	.	.	.	.	.	.	.	.	.	.	.	.	.	.	.	.	.	.
4r	.	.	8An'/	.	8e-/ 8c'/	.	8f'/	.	.	.	.	.	.	.	.	.	.	.	.	.	.	.	.	.	4r	.	.	.	4r	.
.	.	.	8An'/J	.	8e-/J 8c'/)	.	8f'/J	.	8AA/	-ti-	.	8c\	-ti-	.	8e-\	-ti-	.	8f/	-ti-	.	.	.	.	.	.	.	.	.	.	.
4AA/	.	.	8r	.	8r	.	8r	.	8AA/	-am	.	8c\	-am	.	8e-\	-am	.	8f/	-am	.	.	.	.	.	2r	.	.	.	2r	.
!	!	!	!LO:TX:b:t=...	!	!	!	!LO:TX:b:t=...	!	!	!	!	!	!	!	!	!	!	!	!	!	!	!	!	!	!	!	!	!	!	!
.	.	.	8A'/L	.	(8e-/L 8c'/	.	8f'/L	.	8AA/	pro	.	8c\	pro	.	8e-\	pro	.	8f/	pro	.	.	.	.	.	.	.	.	.	.	.
!	!	!	!	!	!	!	!	!	!	!	!	!	!	!	!	!	!	!LO:LB:g=original	!	!	!	!	!	!	!	!	!	!	!	!
4r	.	.	8A'/	.	8e-/ 8c'/	.	8f'/	.	4AA/	no-	.	4c\	no-	.	4e-\	no-	.	4f/	no-	.	.	.	.	.	.	.	.	.	.	.
.	.	.	8A'/J	.	8e-/J 8c'/)	.	8f'/J	.	.	.	.	.	.	.	.	.	.	.	.	.	.	.	.	.	.	.	.	.	.	.
!	!	!	!	!	!	!	!	!	!LO:LB:g=original	!	!	!LO:LB:g=original	!	!	!LO:LB:g=original	!	!	!	!	!	!	!	!	!	!LO:LB:g=original	!	!	!	!	!
=28	=28	=28	=28	=28	=28	=28	=28	=28	=28	=28	=28	=28	=28	=28	=28	=28	=28	=28	=28	=28	=28	=28	=28	=28	=28	=28	=28	=28	=28	=28
4BB-/	.	.	8r	.	8r	.	8r	.	4BB-/	-bis	.	4B-\	-bis	.	4d\	-bis	.	4f/	-bis	.	.	.	.	.	[2F\	.	.	[2f\	[2ff\	.
!	!	!	!LO:TX:b:t=...	!	!	!	!	!	!	!	!	!	!	!	!	!	!	!	!	!	!	!	!	!	!	!	!	!	!	!
.	.	.	8B-'/L	.	(8d'/L	.	8f/L	.	.	.	.	.	.	.	.	.	.	.	.	.	.	.	.	.	.	.	.	.	.	.
4r	.	.	8B-'/	.	8d'/	.	8f/	.	4r	.	.	4r	.	.	4r	.	.	4r	.	.	.	.	.	.	.	.	.	.	.	.
.	.	.	8B-'/J	.	8d'/J)	.	8f/J	.	.	.	.	.	.	.	.	.	.	.	.	.	.	.	.	.	.	.	.	.	.	.
4BB-/	.	.	8r	.	8r	.	8r	.	4r	.	.	4r	.	.	4r	.	.	4r	.	.	.	.	.	.	8F\L]	.	.	8f\L]	8ff\L]	.
!	!	!	!LO:TX:b:t=...	!	!	!	!	!	!	!	!	!	!	!	!	!	!	!	!	!	!	!	!	!	!	!	!	!	!	!
.	.	.	8B-'/L	.	(8d'/L	.	8f/L	.	.	.	.	.	.	.	.	.	.	.	.	.	.	.	.	.	(8d\	.	.	(8dd\	(8ddd\	.
4r	.	.	8B-'/	.	8d'/	.	8f/	.	4BB-/	sub	.	4B-\	sub	.	4d\	sub	.	4f/	sub	.	.	.	.	.	8An\	.	.	8a\	8aan\	.
.	.	.	8B-'/J	.	8d'/J)	.	8f/J	.	.	.	.	.	.	.	.	.	.	.	.	.	.	.	.	.	8B-\J)	.	.	8b-\J)	8bb-\J)	.
!	!	!	!	!	!LO:LB:g=original	!	!	!	!	!	!	!	!	!	!	!	!	!	!	!	!	!	!	!	!	!	!	!	!LO:LB:g=original	!
=29	=29	=29	=29	=29	=29	=29	=29	=29	=29	=29	=29	=29	=29	=29	=29	=29	=29	=29	=29	=29	=29	=29	=29	=29	=29	=29	=29	=29	=29	=29
4E-\	.	.	8r	.	8r	.	8r	.	4.E-\	Pon-	.	4.B-\	Pon-	.	4.e-\	Pon-	.	4.g/	Pon-	.	00r	00r	00r	00r	[2G\	.	00r	[2g\	[2gg\	.
!	!	!	!LO:TX:t=...	!	!	!	!	!	!	!	!	!	!	!	!	!	!	!	!	!	!	!	!	!	!	!	!	!	!	!
.	.	.	8e-'\L	.	(8B-'/L	.	8g/L	.	.	.	.	.	.	.	.	.	.	.	.	.	.	.	.	.	.	.	.	.	.	.
4r	.	.	8e-'\	.	8B-'/	.	8g/	.	.	.	.	.	.	.	.	.	.	.	.	.	.	.	.	.	.	.	.	.	.	.
.	.	.	8e-'\J	.	8B-'/J)	.	8g/J	.	8E-\	-ti-	.	8B-\	-ti-	.	8e-\	-ti-	.	8g/	-ti-	.	.	.	.	.	.	.	.	.	.	.
4E-\	.	.	8r	.	8r	.	8r	.	4E-\	-o	.	4B-\	-o	.	4e-\	-o	.	4g/	-o	.	.	.	.	.	8G\L]	.	.	8g\L]	8gg\L]	.
!	!	!	!LO:TX:t=...	!	!	!	!	!	!	!	!	!	!	!	!	!	!	!	!	!	!	!	!	!	!	!	!	!	!	!
.	.	.	8e-'\L	.	(8B-'/L	.	8g/L	.	.	.	.	.	.	.	.	.	.	.	.	.	.	.	.	.	(8e-\	.	.	(8ee-\	(8eee-\	.
4r	.	.	8e-'\	.	8B-'/	.	8g/	.	4E-\	Pi-	.	4B-\	Pi-	.	4e-\	Pi-	.	4g/	Pi-	.	.	.	.	.	8Bn\	.	.	8bX\	8bbn\	.
.	.	.	8e-'\J	.	8B-'/J)	.	8g/J	.	.	.	.	.	.	.	.	.	.	.	.	.	.	.	.	.	8c\J)	.	.	8cc\J)	8ccc\J)	.
=30	=30	=30	=30	=30	=30	=30	=30	=30	=30	=30	=30	=30	=30	=30	=30	=30	=30	=30	=30	=30	=30	=30	=30	=30	=30	=30	=30	=30	=30	=30
4BB-/	.	.	8r	.	8r	.	8r	.	4BB-/	-la-	.	4B-\	-la-	.	4d\	-la-	.	4f/	-la-	.	.	.	.	.	[2F\	.	.	[2f\	[2ff\	.
!	!	!	!LO:TX:b:t=...	!	!	!	!	!	!	!	!	!	!	!	!	!	!	!	!	!	!	!	!	!	!	!	!	!	!	!
.	.	.	8B-'/L	.	(8d'/L	.	8f/L	.	.	.	.	.	.	.	.	.	.	.	.	.	.	.	.	.	.	.	.	.	.	.
4r	.	.	8B-'/	.	8d'/	.	8f/	.	4BB-/	-to	.	4B-\	-to	.	4d\	-to	.	4f/	-to	.	.	.	.	.	.	.	.	.	.	.
.	.	.	8B-'/J	.	8d'/J)	.	8f/J	.	.	.	.	.	.	.	.	.	.	.	.	.	.	.	.	.	.	.	.	.	.	.
4BB-/	.	.	8r	.	8r	.	8r	.	4BB-/	pas-	.	4B-\	pas-	.	4d\	paſ-	.	4f/	paſ-	.	.	.	.	.	8F\L]	.	.	8f\L]	8ff\L]	.
!	!	!	!LO:TX:b:t=...	!	!	!	!	!	!	!	!	!	!	!	!	!	!	!	!	!	!	!	!	!	!	!	!	!	!	!
.	.	.	8A-'/L	.	(8d'/L	.	8f/L	.	.	.	.	.	.	.	.	.	.	.	.	.	.	.	.	.	(8d\	.	.	(8dd\	(8ddd\	.
4r	.	.	8A-'/	.	8d'/	.	8f/	.	4BB-/	-sus	.	4B-\	-sus	.	4d\	-sus	.	4f/	-sus	.	.	.	.	.	8An\	.	.	8a\	8aan\	.
.	.	.	8A-'/J	.	8d'/J)	.	8f/J	.	.	.	.	.	.	.	.	.	.	.	.	.	.	.	.	.	8B-\J)	.	.	8b-X\J)	8bb-\J)	.
=31	=31	=31	=31	=31	=31	=31	=31	=31	=31	=31	=31	=31	=31	=31	=31	=31	=31	=31	=31	=31	=31	=31	=31	=31	=31	=31	=31	=31	=31	=31
4F\	.	.	8r	.	8r	.	8r	.	4FF/	et	.	4c\	et	.	4e-\	et	.	4an\	et	.	.	.	.	.	[2An\	.	.	[2a\	[2aan\	.
!	!	!	!LO:TX:b:t=...	!	!	!	!	!	!	!	!	!	!	!	!	!	!	!	!	!	!	!	!	!	!	!	!	!	!	!
.	.	.	8F'/L	.	(8e-/L 8c'/	.	8an/L	.	.	.	.	.	.	.	.	.	.	.	.	.	.	.	.	.	.	.	.	.	.	.
4r	.	.	8F'/	.	8e-/ 8c'/	.	8an/	.	4FF/	se-	.	4c\	se-	.	4e-\	se-	.	4a\	se-	.	.	.	.	.	.	.	.	.	.	.
.	.	.	8F'/J	.	8e-/J 8c'/)	.	8an/J	.	.	.	.	.	.	.	.	.	.	.	.	.	.	.	.	.	.	.	.	.	.	.
4FF/	.	.	8r	.	8r	.	8r	.	4FF/	-pul-	.	4c\	-pul-	.	4e-\	-pul-	.	4a\	-pul-	.	.	.	.	.	8A\L]	.	.	8a\L]	8aa\L]	.
!	!	!	!LO:TX:b:t=...	!	!	!	!	!	!	!	!	!	!	!	!	!	!	!	!	!	!	!	!	!	!	!	!	!	!	!
.	.	.	8F'/L	.	(8e-/L 8c'/	.	8a/L	.	.	.	.	.	.	.	.	.	.	.	.	.	.	.	.	.	(8g\	.	.	(8gg\	(8ggg\	.
4r	.	.	8F'/	.	8e-/ 8c'/	.	8a/	.	4FF/	-tus	.	4c\	-tus	.	4e-\	-tus	.	4a\	-tus	.	.	.	.	.	8f\	.	.	8ff\	8fff\	.
.	.	.	8F'/J	.	8e-/J 8c'/)	.	8a/J	.	.	.	.	.	.	.	.	.	.	.	.	.	.	.	.	.	8A\J)	.	.	8a\J)	8aa\J)	.
*	*	*	*	*	*	*	*Xtremolo	*	*	*	*	*	*	*	*	*	*	*	*	*	*	*	*	*	*	*	*	*	*	*
=32	=32	=32	=32	=32	=32	=32	=32	=32	=32	=32	=32	=32	=32	=32	=32	=32	=32	=32	=32	=32	=32	=32	=32	=32	=32	=32	=32	=32	=32	=32
!	!	!	!LO:TX:b:t=....	!	!	!	!	!	!	!	!	!	!	!	!	!	!	!	!	!	!	!	!	!	!	!	!	!	!	!
4BB-/	.	.	8B-'/L	.	8r	.	8b-/L	.	4BB-/	est	.	4B-\	est	.	4d\	est	.	4b-\	est	.	.	.	.	.	[2F\	.	.	[2f\	[2ff\	.
.	.	.	8B-'/	.	(8d'/L	.	8f/	.	.	.	.	.	.	.	.	.	.	.	.	.	.	.	.	.	.	.	.	.	.	.
4r	.	.	8B-'/	.	8d'/	.	8f/	.	4r	.	.	4r	.	.	4r	.	.	4r	.	.	.	.	.	.	.	.	.	.	.	.
.	.	.	8B-'/J	.	8d'/J)	.	8f/J	.	.	.	.	.	.	.	.	.	.	.	.	.	.	.	.	.	.	.	.	.	.	.
*	*	*	*Xtremolo	*	*	*	*	*	*	*	*	*	*	*	*	*	*	*	*	*	*	*	*	*	*	*	*	*	*	*
4BB-/	.	.	8r	.	8r	.	8r	.	2r	.	.	2r	.	.	2r	.	.	2r	.	.	.	.	.	.	8F\L]	.	.	8f\L]	8ff\L]	.
.	.	.	8B-/L	.	(8d'/L	.	8f/L	.	.	.	.	.	.	.	.	.	.	.	.	.	.	.	.	.	(8d\	.	.	(8dd\	(8ddd\	.
4r	.	.	8B-/	.	8d'/	.	8f/	.	.	.	.	.	.	.	.	.	.	.	.	.	.	.	.	.	8An\	.	.	8a\	8aan\	.
.	.	.	8B-/J	.	8d'/J)	.	8f/J	.	.	.	.	.	.	.	.	.	.	.	.	.	.	.	.	.	8B-\J)	.	.	8b-\J)	8bb-\J)	.
!	!	!	!LO:LB:g=original	!	!	!	!	!	!	!	!	!LO:LB:g=original	!	!	!	!	!	!LO:LB:g=original	!	!	!	!	!	!	!	!	!	!	!	!
=33	=33	=33	=33	=33	=33	=33	=33	=33	=33	=33	=33	=33	=33	=33	=33	=33	=33	=33	=33	=33	=33	=33	=33	=33	=33	=33	=33	=33	=33	=33
!	!	!	!	!	!	!	!	!LO:HP:a	!	!	!	!	!	!	!LO:N:vis=4.	!	!	!	!	!	!	!	!	!	!	!	!	!	!	!
4BB-/	6-	.	8r	.	8r	.	[2An/	<	4BB-/	et	.	4c\	et	.	4e-\	et	.	4g-X/	et	.	00r	00r	00r	00r	4F\	.	1r	4f/	4ff\	.
*	*	*	*tremolo	*	*	*	*	*	*	*	*	*	*	*	*	*	*	*	*	*	*	*	*	*	*	*	*	*	*	*
!	!	!	!LO:TX:b:t=...	!	!	!	!	!	!	!	!	!	!	!	!	!	!	!	!	!	!	!	!	!	!	!	!	!	!	!
.	.	.	8B-'/L	.	(8e-/L 8c'/	.	.	.	.	.	.	.	.	.	.	.	.	.	.	.	.	.	.	.	.	.	.	.	.	.
4r	.	.	8B-'/	.	8e-/ 8c'/	.	.	.	4BB-/	se-	.	4c\	se-	.	4e-\	se-	.	4g-/	se-	.	.	.	.	.	4r	.	.	4r	4r	.
.	.	.	8B-'/J	.	8e-/J 8c'/)	.	.	.	.	.	.	.	.	.	.	.	.	.	.	.	.	.	.	.	.	.	.	.	.	.
!	!	!	!	!	!	!	!	!	!	!	!	!	!	!	!LO:LB:g=original	!	!	!	!	!	!	!	!	!	!	!	!	!	!	!
4BB-/	.	.	8r	.	8r	.	8A/L]	.	4BB-/	-pul-	.	4c\	-pul-	.	4e-\	-pul-	.	4g-/	-pul-	.	.	.	.	.	2r	.	.	2r	2r	.
!	!	!	!LO:TX:b:t=...	!	!	!	!	!LO:HP:a	!	!	!	!	!	!	!	!	!	!	!	!	!	!	!	!	!	!	!	!	!	!
.	.	.	8B-'/L	.	(8e-/L 8c'/	.	(8g-X/	[ >	.	.	.	.	.	.	.	.	.	.	.	.	.	.	.	.	.	.	.	.	.	.
4r	.	.	8B-'/	.	8e-/ 8c'/	.	8f/	.	4BB-/	-tus	.	4c\	-tus	.	4e-\	-tus	.	4g-/	-tus	.	.	.	.	.	.	.	.	.	.	.
.	.	.	8B-'/J	.	8e-/J 8c'/)	.	8A/J)	]	.	.	.	.	.	.	.	.	.	.	.	.	.	.	.	.	.	.	.	.	.	.
!LO:LB:g=original	!	!	!	!	!LO:LB:g=original	!	!	!	!	!	!	!	!	!	!	!	!	!	!	!	!	!	!	!	!	!	!	!LO:LB:g=original	!	!
=34	=34	=34	=34	=34	=34	=34	=34	=34	=34	=34	=34	=34	=34	=34	=34	=34	=34	=34	=34	=34	=34	=34	=34	=34	=34	=34	=34	=34	=34	=34
4BB-/	5	.	8r	.	8r	.	8B-/L	.	4BB-/	est	.	4B-\	est	.	4d\	est	.	4f/	est	.	.	.	.	.	[2F\	.	0r	[2f\	[2ff\	.
!	!	!	!LO:TX:b:t=...	!	!	!	!	!	!	!	!	!	!	!	!	!	!	!	!	!	!	!	!	!	!	!	!	!	!	!
.	.	.	8B-'/L	.	(8d'/L	.	8f/	.	.	.	.	.	.	.	.	.	.	.	.	.	.	.	.	.	.	.	.	.	.	.
4r	.	.	8B-'/	.	8d'/	.	8f/	.	4r	.	.	4r	.	.	4r	.	.	4r	.	.	.	.	.	.	.	.	.	.	.	.
.	.	.	8B-'/J	.	8d'/J)	.	8f/J	.	.	.	.	.	.	.	.	.	.	.	.	.	.	.	.	.	.	.	.	.	.	.
4BB-/	.	.	8r	.	8r	.	8r	.	2r	.	.	2r	.	.	2r	.	.	2r	.	.	.	.	.	.	8F\L]	.	.	8f\L]	8ff\L]	.
*	*	*	*	*	*	*	*tremolo	*	*	*	*	*	*	*	*	*	*	*	*	*	*	*	*	*	*	*	*	*	*	*
!	!	!	!LO:TX:b:t=...	!	!	!	!LO:TX:b:t=...	!	!	!	!	!	!	!	!	!	!	!	!	!	!	!	!	!	!	!	!	!	!	!
.	.	.	8B-'/L	.	(8d'/L	.	8f'/L	.	.	.	.	.	.	.	.	.	.	.	.	.	.	.	.	.	(8d\	.	.	(8dd\	(8ddd\	.
4r	.	.	8B-'/	.	8d'/	.	8f'/	.	.	.	.	.	.	.	.	.	.	.	.	.	.	.	.	.	8An\	.	.	8a\	8aan\	.
.	.	.	8B-'/J	.	8d'/J)	.	8f'/J	.	.	.	.	.	.	.	.	.	.	.	.	.	.	.	.	.	8B-\J)	.	.	8b-\J)	8bb-\J)	.
*	*	*	*	*	*	*	*Xtremolo	*	*	*	*	*	*	*	*	*	*	*	*	*	*	*	*	*	*	*	*	*	*	*
!	!	!	!	!	!	!	!	!	!LO:LB:g=original	!	!	!	!	!	!	!	!	!	!	!	!	!	!	!	!	!	!	!	!	!
=35	=35	=35	=35	=35	=35	=35	=35	=35	=35	=35	=35	=35	=35	=35	=35	=35	=35	=35	=35	=35	=35	=35	=35	=35	=35	=35	=35	=35	=35	=35
!	!	!	!	!	!	!	!	!LO:HP:a	!	!	!	!	!	!	!	!	!	!	!	!	!	!	!	!	!	!	!	!	!	!
4BB-/	6-	.	8r	.	8r	.	[2An/	<	4BB-/	et	.	4c\	et	.	4e-\	et	.	4g-X/	et	.	.	.	.	.	4F\	.	.	4f/	4ff\	.
!	!	!	!LO:TX:b:t=...	!	!	!	!	!	!	!	!	!	!	!	!	!	!	!	!	!	!	!	!	!	!	!	!	!	!	!
.	.	.	8B-'/L	.	(8e-/L 8c'/	.	.	.	.	.	.	.	.	.	.	.	.	.	.	.	.	.	.	.	.	.	.	.	.	.
4r	.	.	8B-'/	.	8e-/ 8c'/	.	.	.	4BB-/	se-	.	4c\	se-	.	4e-\	se-	.	4g-/	se-	.	.	.	.	.	4r	.	.	4r	4r	.
.	.	.	8B-'/J	.	8e-/J 8c'/)	.	.	.	.	.	.	.	.	.	.	.	.	.	.	.	.	.	.	.	.	.	.	.	.	.
4BB-/	.	.	8r	.	8r	.	8A/L]	.	4BB-/	-pul-	.	4c\	-pul-	.	4e-\	-pul-	.	4g-/	-pul-	.	.	.	.	.	2r	.	.	2r	2r	.
!	!	!	!LO:TX:b:t=...	!	!	!	!	!LO:HP:a	!	!	!	!	!	!	!	!	!	!	!	!	!	!	!	!	!	!	!	!	!	!
.	.	.	8B-'/L	.	(8e-/L 8c'/	.	(8g-X/	[ >	.	.	.	.	.	.	.	.	.	.	.	.	.	.	.	.	.	.	.	.	.	.
4r	.	.	8B-'/	.	8e-/ 8c'/	.	8f/	.	4BB-/	-tus	.	4c\	-tus	.	4e-\	-tus	.	4g-/	-tus	.	.	.	.	.	.	.	.	.	.	.
.	.	.	8B-'/J	.	8e-/J 8c'/)	.	8A/J)	]	.	.	.	.	.	.	.	.	.	.	.	.	.	.	.	.	.	.	.	.	.	.
*	*	*	*Xtremolo	*	*	*	*	*	*	*	*	*	*	*	*	*	*	*	*	*	*	*	*	*	*	*	*	*	*	*
!	!	!	!	!	!	!	!	!	!	!	!	!	!	!	!	!	!	!	!	!	!	!	!	!	!LO:LB:g=original	!	!	!	!	!
=36	=36	=36	=36	=36	=36	=36	=36	=36	=36	=36	=36	=36	=36	=36	=36	=36	=36	=36	=36	=36	=36	=36	=36	=36	=36	=36	=36	=36	=36	=36
4BB-/	5	.	4B-/	.	4d/	.	4B-/	.	4BB-/	est	.	4B-\	est	.	4d\	est	.	4f/	est.	.	.	.	.	.	[2F\	.	1r	[2f\	[2ff\	.
4r	.	.	4r	.	4r	.	4r	.	4r	.	.	4r	.	.	4r	.	.	4r	.	.	.	.	.	.	.	.	.	.	.	.
4BB-/	8	.	4F/	.	4d/	.	4B-/	.	2r	.	.	2r	.	.	2r	.	.	2r	.	.	.	.	.	.	8F\L]	.	.	8f\L]	8ff\L]	.
.	.	.	.	.	.	.	.	.	.	.	.	.	.	.	.	.	.	.	.	.	.	.	.	.	(8d\	.	.	(8dd\	(8ddd\	.
4BB-/	.	.	4F/	.	4d/	.	4B-/	.	.	.	.	.	.	.	.	.	.	.	.	.	.	.	.	.	8An\	.	.	8a\	8aan\	.
.	.	.	.	.	.	.	.	.	.	.	.	.	.	.	.	.	.	.	.	.	.	.	.	.	8B-\J)	.	.	8b-\J)	8bb-\J)	.
!	!	!	!	!	!	!	!	!	!	!	!	!	!	!	!	!	!	!	!	!	!	!	!	!	!	!	!	!	!LO:LB:g=original	!
=37	=37	=37	=37	=37	=37	=37	=37	=37	=37	=37	=37	=37	=37	=37	=37	=37	=37	=37	=37	=37	=37	=37	=37	=37	=37	=37	=37	=37	=37	=37
!	!	!	!	!	!	!	!	!	!	!	!	!	!	!	!	!	!	!	!	!	!	!LO:TX:b:t=Attaca Et resur&colon;	!LO:TX:b:t=Attaca Et resure&colon;	!LO:TX:b:t=Attaca Et resurexit	!	!	!LO:TX:b:t=attaca	!	!	!
2BB-;/	.	.	2F;/	.	2d;/	.	2B-;/	.	2r;	.	.	2r;	.	.	2r;	.	.	2r;	.	.	2r;	2r;	2r;	2r;	2B-;\	.	2r;	2b-;\	2bb-;\	.
!	!	!	!LO:TX:b:t=attaca et resurexit	!	!LO:TX:b:t=Attaca et resurexit	!	!LO:TX:b:t=attaca et resurexit	!	!	!	!	!	!	!	!LO:TX:b:t=Attaca	!	!	!LO:TX:b:t=Attaca	!	!	!LO:TX:b:t=Attaca et resurexit	!	!	!	!LO:TX:b:t=attaca Et resur&colon;	!	!	!LO:TX:b:t=Attaca. Et resurexit	!LO:TX:b:t=attaca Et resurexit	!
8r	.	.	8r	.	8r	.	8r	.	8r	.	.	8r	.	.	8r	.	.	8r	.	.	8r	8r	8r	8ry	8r	.	8r	8r	8r	.
==	==	==	==	==	==	==	==	==	==	==	==	==	==	==	==	==	==	==	==	==	==	==	==	==	==	==	==	==	==	==
*-	*-	*-	*-	*-	*-	*-	*-	*-	*-	*-	*-	*-	*-	*-	*-	*-	*-	*-	*-	*-	*-	*-	*-	*-	*-	*-	*-	*-	*-	*-
!!!system-decoration: [(s1,s2,s3,s4,s5)][(s6,s7)][(s8)][(s9,s10,s11,s12)][(s13,s14,s15)][(s16)]
!!!ENC: Marcin Jachim
!!!END: 2020-10-10
!!!EED: Andrzej Borzym
!!!EST: 2022-01-17
!!!RDF**kern: > = above
!!!RDF**kern: < = below
